icon/mi/teahouse.svg

<?xml version="1.0" encoding="UTF-8"?>
<svg viewBox="0 0 15 15" xmlns="http://www.w3.org/2000/svg" id="teahouse" height="1em" width="1em">
  <path d="M8.00002 5C8.00002 5 10 4.9 10 3.4 10 2.46598 9.17751 2.20864 8.47606 1.98917 7.95458 1.82601 7.5 1.68378 7.5 1.3 7.5.386843 8 0 8 0 8 0 7 .531581 7 1.5 7 2.21063 7.54045 2.46176 8.05947 2.70292 8.53888 2.92568 9 3.13994 9 3.7 9 4.7 8.00002 5 8.00002 5ZM11.8372 6.67447C11.3755 8.62063 10.7854 11.1073 9 12V14H6V12C4.21455 11.1073 3.62454 8.62063 3.16276 6.67447 3.10728 6.44061 3.05364 6.21455 3 6H12C11.9464 6.21453 11.8927 6.44063 11.8372 6.67447ZM6.99998 4C6.99998 5 5.49998 5 5.49998 5 5.49998 5 6.29295 4.9 6.29295 4.3 6.29295 4.02526 6.01604 3.85489 5.71852 3.67184 5.37315 3.45935 5 3.22977 5 2.8 5 1.9661 5.99998 1.5 5.99998 1.5 5.99998 1.5 5.49998 1.77344 5.49998 2.5 5.49998 2.88823 5.85322 3.04095 6.21687 3.19818 6.60257 3.36494 6.99998 3.53675 6.99998 4Z"/>
</svg>

<svg width="15" height="15" xmlns="http://www.w3.org/2000/svg"><path d="M8 5s2-.1 2-1.6c0-.934-.822-1.191-1.524-1.41-.521-.164-.976-.306-.976-.69C7.5.387 8 0 8 0S7 .532 7 1.5c0 .71.54.962 1.06 1.203.479.223.94.437.94.997C9 4.7 8 5 8 5Zm3.837 1.674C11.376 8.621 10.785 11.107 9 12v2H6v-2c-1.785-.893-2.375-3.38-2.837-5.326-.056-.233-.11-.46-.163-.674h9c-.054.215-.107.44-.163.674ZM7 4c0 1-1.5 1-1.5 1s.793-.1.793-.7c0-.275-.277-.445-.574-.628C5.373 3.459 5 3.23 5 2.8c0-.834 1-1.3 1-1.3s-.5.273-.5 1c0 .388.353.541.717.698.386.167.783.339.783.802Z"/></svg>
